usr/share/icons/biglinux-icons-material-dark/16/actions/resizecol.svg

<svg xmlns="http://www.w3.org/2000/svg" viewBox="0 0 16 16">
  <defs id="defs3051">
    <style type="text/css" id="current-color-scheme">
      .ColorScheme-Text {
        color:#dedede;
      }
      </style>
  </defs>
 <path style="fill:currentColor;fill-opacity:1;stroke:none" 
     d="M 7.5 2 L 7.5 14 L 8.5 14 L 8.5 2 L 7.5 2 z M 4.5 6 L 2.5 8 L 4.5 10 L 4.5 9 L 6.5 9 L 6.5 7 L 4.5 7 L 4.5 6 z M 11.5 6 L 11.5 7 L 9.5 7 L 9.5 9 L 11.5 9 L 11.5 10 L 13.5 8 L 11.5 6 z "
     class="ColorScheme-Text"
     />
</svg>

<svg xmlns="http://www.w3.org/2000/svg" viewBox="0 0 16 16">
<defs id="defs3051">
<style id="current-color-scheme" type="text/css">
.ColorScheme-Text{color:#dedede}
</style>
</defs>
<path d="M7.5 2v12h1V2zm-3 4-2 2 2 2V9h2V7h-2zm7 0v1h-2v2h2v1l2-2z" class="ColorScheme-Text" style="fill:currentColor;fill-opacity:1;stroke:none"/>
</svg>
